X: 10592
M: C
L: 1/8
K: Bm
g !segno!|\
f>BdB fBd(e | f)>BdB eAc(e | f)>BdB f>Bde | Tf^gaf eAce |
f>BdB fBd(e | f)>BdB eAc(e | f)>BdB fBde | Tf>^gaf eAce !segno!|]


